!!!OTL: Der Wilddieb (Band 1), S. 181
!!!id: P0836
**kern
*clefG2
*k[f#]
*G:
{4d
=1
4.g
8f#
8g
8b
=2
4a
4g
4a
=3
8b
8a
4g}
=4
{8g
8a
=5
4b
4a
4b
=6
4cc
4b
4cc
=7
4.dd
8ee
8dd
8cc
=8
4b}
4r
=9
{8g
8b
=10
4dd
4cc
8dd
8cc
=11
4b
4a
8b
8dd
=12
4.cc
8cc
4b
=13
4a
4g}
=14
{8g
8a
=15
4b
4b
8a
8cc
=16
4b
4r
8g
8b
=17
4dd
4dd
8cc
8a
=18
2g}
==
*-
!!!minrhy: 8
!!!meters: 3/4 ]  ZZ[4
!!!cut: Der Wilddieb (Band 1), S. 181
!!!reg: Lothringen
!!!trd: PINCK, Louis: Verklingende Weisen, Bd 1, Metz 1928
!!!rhy1: X_  X_.XXX  X_X_X_  XXX_
!!!rhy2: XX  X_X_X_  X_X_X_  X_.XXX  X_0_
!!!key: P0836  08  G 3/4 ]  ZZ[4
!!!mod: HEPTATONIK IONISCH]  AMBITUS[9
!!!kad: 1311
!!!akz: 123_3453_5342_3351_
!!!fot: 'a__as"b__c__
!!!for: 'a__b__c__d__
!!!fok: '^a_^a_M__M__
!! PHRAS[AUFTAKTIG]
!!!fkt: J&auml;gerei, Wilderei
!! LOTH VKL
!! PR[25] 2K[10] 2G[15] 3K[0] 3G[0] 4A[10] 4Ü[0] 5A[3] 6K[0] 6G[0]
!! 7K[0] 7G[0] 8A[0] MEHR[0] SI[38] ABS[40] SR[25] SP[13]
!! ST[17] 2k[5] 2g[15] 3k[13] 3g[3] 4d[3] 4ü[0] 5d[0] 6k[0] 6g[0]
!! 7k[0] 7g[0] 8d[0] mehr[0] si[38] dm[0] sr[20] sp[18]
!! 1F[7] 2F[77] 3F[9] 4F[0] LF[0] 2P[2] 3P[5] 4P[0] TRI[0] DF[5] AB[44]
!! TF[0] U3K[0] U3[0] U4[0] U4Ü[0] U5[15] U6K[0] U6[17] U7K[0] U7[10]
!! N1[27] N2K[0] N2[22] N3K[0] N3[10] N4[0] N4Ü[0] N5[0] N6K[0] N6[0]
!!!n7k: 0] N7[0] O1[0] O2K[0] O2[0] O3K[0] O3[0] HÖ[0
!!!RNB: symbol: &auml;      = a umlaut  (UTF-8: Å„)
